austria/municipalities/70920.svg

<?xml version="1.0" encoding="UTF-8"?>
<!DOCTYPE svg PUBLIC "-//W3C//DTD SVG 1.1//EN" "http://www.w3.org/Graphics/SVG/1.1/DTD/svg11.dtd">
<svg xmlns="http://www.w3.org/2000/svg" version="1.1" width="167px" height="198px" style="shape-rendering:geometricPrecision; text-rendering:geometricPrecision; image-rendering:optimizeQuality; fill-rule:evenodd; clip-rule:evenodd" xmlns:xlink="http://www.w3.org/1999/xlink">
<g><path style="opacity:1" fill="#fdfdfd" d="M 165.5,-0.5 C 165.833,-0.5 166.167,-0.5 166.5,-0.5C 166.5,65.5 166.5,131.5 166.5,197.5C 141.5,197.5 116.5,197.5 91.5,197.5C 133.619,189.88 158.119,164.88 165,122.5C 165.5,81.5014 165.667,40.5014 165.5,-0.5 Z"/></g>
<g><path style="opacity:1" fill="#080605" d="M -0.5,-0.5 C 54.8333,-0.5 110.167,-0.5 165.5,-0.5C 165.667,40.5014 165.5,81.5014 165,122.5C 158.119,164.88 133.619,189.88 91.5,197.5C 85.1667,197.5 78.8333,197.5 72.5,197.5C 32.2693,189.603 7.93594,165.603 -0.5,125.5C -0.5,83.5 -0.5,41.5 -0.5,-0.5 Z"/></g>
<g><path style="opacity:1" fill="#d63023" d="M 3.5,3.5 C 29.5,3.5 55.5,3.5 81.5,3.5C 81.5,8.16667 81.5,12.8333 81.5,17.5C 76.0749,17.3784 71.4082,19.2117 67.5,23C 62.7039,23.9095 58.0372,25.2429 53.5,27C 52.269,28.1827 52.269,29.3493 53.5,30.5C 60.0347,32.0747 60.0347,33.0747 53.5,33.5C 54.1302,36.5817 55.1302,39.5817 56.5,42.5C 57.439,40.9466 58.6057,39.6133 60,38.5C 63.3237,41.8314 67.157,44.3314 71.5,46C 62.2499,50.5326 54.7499,57.0326 49,65.5C 45.1667,62.3333 41.3333,59.1667 37.5,56C 28.9632,56.6759 21.1299,59.5093 14,64.5C 12.3783,67.9869 11.545,71.6535 11.5,75.5C 13.1667,75.5 14.8333,75.5 16.5,75.5C 16.5,73.8333 16.5,72.1667 16.5,70.5C 22.143,67.9254 27.643,64.9254 33,61.5C 37.0411,68.4167 41.2078,75.25 45.5,82C 37.5,82.3333 29.5,82.6667 21.5,83C 20.6667,83.8333 19.8333,84.6667 19,85.5C 16.9036,94.0342 15.9036,102.701 16,111.5C 17.8333,112.667 19.6667,113.833 21.5,115C 24.0023,115.28 25.669,114.113 26.5,111.5C 24.5398,109.844 22.5398,108.177 20.5,106.5C 21.325,105.614 22.325,105.281 23.5,105.5C 23.3341,100.489 23.5007,95.4889 24,90.5C 24.414,90.0426 24.914,89.7093 25.5,89.5C 34.4518,92.6544 43.4518,95.6544 52.5,98.5C 53.4776,98.0233 54.3109,97.3567 55,96.5C 63.7483,99.9717 72.4149,103.638 81,107.5C 81.7203,109.112 81.5536,110.612 80.5,112C 73.8635,113.794 67.1969,115.461 60.5,117C 51.7934,121.628 49.1267,128.628 52.5,138C 52.0097,139.982 51.0097,141.649 49.5,143C 50.9961,143.507 52.1627,143.007 53,141.5C 53.5946,142.899 53.4279,144.232 52.5,145.5C 53.3554,146.293 54.1887,145.96 55,144.5C 54.9227,145.738 55.0894,146.738 55.5,147.5C 56.6311,146.249 57.9644,145.249 59.5,144.5C 60.1667,144.833 60.8333,145.167 61.5,145.5C 56.8214,152.856 51.6547,159.856 46,166.5C 44.7822,170.147 44.1155,173.814 44,177.5C 44.6667,178.833 45.3333,178.833 46,177.5C 46.4186,178.672 47.0853,179.672 48,180.5C 49.6044,177.753 50.4378,174.753 50.5,171.5C 51.8221,171.67 52.9887,171.337 54,170.5C 58.3716,160.453 64.7049,151.786 73,144.5C 69.6262,136.23 72.1262,130.23 80.5,126.5C 81.4997,148.823 81.833,171.157 81.5,193.5C 38.5256,189.69 12.6923,166.69 4,124.5C 3.50001,84.168 3.33334,43.8347 3.5,3.5 Z"/></g>
<g><path style="opacity:1" fill="#807b75" d="M 83.5,3.5 C 83.3343,7.84611 83.501,12.1794 84,16.5C 84.8159,15.1772 85.9826,14.5106 87.5,14.5C 86.8333,15.8333 85.8333,16.8333 84.5,17.5C 83.1952,15.6028 82.5286,13.2695 82.5,10.5C 82.5034,7.97459 82.8367,5.64125 83.5,3.5 Z"/></g>
<g><path style="opacity:1" fill="#fcfcfc" d="M 83.5,3.5 C 109.167,3.5 134.833,3.5 160.5,3.5C 160.667,44.5014 160.5,85.5014 160,126.5C 151.995,165.672 128.162,187.672 88.5,192.5C 86.8333,192.5 85.1667,192.5 83.5,192.5C 83.5,169.833 83.5,147.167 83.5,124.5C 84.5171,122.401 85.8505,121.401 87.5,121.5C 82.1945,130.691 84.0278,138.024 93,143.5C 93.6514,145.235 93.4847,146.902 92.5,148.5C 93.2739,149.711 94.1072,149.711 95,148.5C 95.3333,149.167 95.6667,149.833 96,150.5C 97.4737,147.675 98.9737,147.342 100.5,149.5C 102.111,148.68 102.778,147.346 102.5,145.5C 104.5,145.5 106.5,145.5 108.5,145.5C 107.889,157.279 106.556,168.945 104.5,180.5C 106.833,180.5 109.167,180.5 111.5,180.5C 111.5,177.167 111.5,173.833 111.5,170.5C 113.948,170.915 115.281,169.915 115.5,167.5C 114.044,156.435 115.044,145.602 118.5,135C 114.179,131.683 111.012,127.516 109,122.5C 108.333,120.5 108.333,118.5 109,116.5C 116.594,115.29 122.427,111.457 126.5,105C 130.152,104.501 133.818,104.335 137.5,104.5C 137.5,103.5 137.5,102.5 137.5,101.5C 136.448,101.649 135.448,101.483 134.5,101C 136.473,100.505 138.473,100.338 140.5,100.5C 140.5,99.5 140.5,98.5 140.5,97.5C 137.482,97.6646 134.482,97.498 131.5,97C 134.817,96.5017 138.15,96.335 141.5,96.5C 141.5,95.5 141.5,94.5 141.5,93.5C 137.154,93.3343 132.821,93.501 128.5,94C 125.178,98.2947 121.845,102.628 118.5,107C 115.386,108.931 112.053,109.598 108.5,109C 102.88,102.258 97.38,95.4248 92,88.5C 90.0869,85.1741 88.5869,81.6741 87.5,78C 91.5037,66.8195 94.0037,55.3195 95,43.5C 96.6095,42.8534 98.1095,42.02 99.5,41C 97.9632,39.8904 97.2965,38.3904 97.5,36.5C 102.69,35.3754 107.69,36.042 112.5,38.5C 115.913,41.6735 118.58,45.3402 120.5,49.5C 120.608,54.8699 120.275,60.2032 119.5,65.5C 119.34,67.153 118.674,68.4863 117.5,69.5C 116.094,69.9731 115.427,70.9731 115.5,72.5C 113.167,74.1667 111.167,76.1667 109.5,78.5C 109.5,79.1667 109.167,79.5 108.5,79.5C 106.973,79.427 105.973,80.0937 105.5,81.5C 103.742,81.8769 102.075,82.5435 100.5,83.5C 99.2267,84.2565 99.2267,84.9232 100.5,85.5C 106.868,90.7056 113.368,90.7056 120,85.5C 120.494,83.8659 120.66,82.1992 120.5,80.5C 121.791,80.7373 122.791,80.404 123.5,79.5C 127.722,78.9293 129.722,76.4293 129.5,72C 129.441,70.5643 129.108,69.231 128.5,68C 129.942,67.6232 130.942,66.7899 131.5,65.5C 133.888,64.7813 135.388,63.1146 136,60.5C 136.826,57.7884 136.326,55.4551 134.5,53.5C 133.685,52.5707 132.852,51.5707 132,50.5C 131.26,49.2506 131.427,48.2506 132.5,47.5C 133.479,44.3752 133.813,41.0419 133.5,37.5C 135.718,40.7193 136.885,44.386 137,48.5C 137.703,55.6868 137.536,62.8535 136.5,70C 137.03,74.2671 138.363,74.4338 140.5,70.5C 143.5,69.5 145.5,67.5 146.5,64.5C 146.932,63.2905 147.599,62.2905 148.5,61.5C 151.639,58.2852 152.139,54.6186 150,50.5C 149.329,49.7476 148.496,49.4142 147.5,49.5C 148.804,46.2883 149.804,42.955 150.5,39.5C 150.332,37.8295 149.665,36.4961 148.5,35.5C 148.5,33.5 147.5,32.5 145.5,32.5C 144.508,32.6716 143.842,32.3382 143.5,31.5C 142.011,28.2963 141.011,24.963 140.5,21.5C 139.512,20.205 138.512,18.8717 137.5,17.5C 136.942,16.2101 135.942,15.3768 134.5,15C 131.746,14.7276 129.079,14.2276 126.5,13.5C 125.5,13.1667 124.833,12.5 124.5,11.5C 123.653,10.0337 122.32,9.20041 120.5,9C 117.961,8.20419 115.628,8.37086 113.5,9.5C 112.791,10.404 111.791,10.7373 110.5,10.5C 107.548,11.3589 105.715,13.3589 105,16.5C 100.413,11.5622 95.2462,10.5622 89.5,13.5C 89.1583,14.3382 88.4916,14.6716 87.5,14.5C 85.9826,14.5106 84.8159,15.1772 84,16.5C 83.501,12.1794 83.3343,7.84611 83.5,3.5 Z"/></g>
<g><path style="opacity:1" fill="#eedc00" d="M 113.5,9.5 C 117.319,9.41399 120.985,10.0807 124.5,11.5C 124.833,12.5 125.5,13.1667 126.5,13.5C 129.825,15.2057 133.492,16.539 137.5,17.5C 138.512,18.8717 139.512,20.205 140.5,21.5C 140.784,24.7766 140.451,27.9433 139.5,31C 140.793,31.49 142.127,31.6567 143.5,31.5C 143.842,32.3382 144.508,32.6716 145.5,32.5C 146.167,33.8333 147.167,34.8333 148.5,35.5C 149.586,40.1679 148.586,44.5012 145.5,48.5C 145.957,49.2975 146.624,49.6309 147.5,49.5C 148.871,51.2592 149.871,53.2592 150.5,55.5C 149.628,57.4496 148.961,59.4496 148.5,61.5C 147.599,62.2905 146.932,63.2905 146.5,64.5C 144.167,66.1667 142.167,68.1667 140.5,70.5C 139.233,71.087 138.233,71.087 137.5,70.5C 139.162,59.7286 138.662,49.0619 136,38.5C 135.208,35.8936 133.708,33.8936 131.5,32.5C 129.421,30.127 126.754,28.7936 123.5,28.5C 122.846,18.6846 117.512,13.8512 107.5,14C 108.71,12.9609 109.71,11.7942 110.5,10.5C 111.791,10.7373 112.791,10.404 113.5,9.5 Z"/></g>
<g><path style="opacity:1" fill="#443d29" d="M 113.5,9.5 C 115.628,8.37086 117.961,8.20419 120.5,9C 122.32,9.20041 123.653,10.0337 124.5,11.5C 120.985,10.0807 117.319,9.41399 113.5,9.5 Z"/></g>
<g><path style="opacity:1" fill="#eedb01" d="M 89.5,13.5 C 96.3313,12.0514 101.831,14.0514 106,19.5C 116.004,16.9914 120.837,20.9914 120.5,31.5C 130.099,32.4502 134.099,37.7836 132.5,47.5C 131.427,48.2506 131.26,49.2506 132,50.5C 132.852,51.5707 133.685,52.5707 134.5,53.5C 135.115,57.9912 134.115,61.9912 131.5,65.5C 130.417,65.5394 129.417,65.8728 128.5,66.5C 128.749,69.8619 128.249,73.1952 127,76.5C 125.855,77.6364 124.688,78.6364 123.5,79.5C 122.167,79.5 120.833,79.5 119.5,79.5C 120.275,83.1816 118.941,85.6816 115.5,87C 110.344,88.6355 105.344,88.1355 100.5,85.5C 102.349,84.407 104.016,83.0737 105.5,81.5C 107.027,81.573 108.027,80.9063 108.5,79.5C 109.167,79.5 109.5,79.1667 109.5,78.5C 112.5,77.5 114.5,75.5 115.5,72.5C 116.906,72.0269 117.573,71.0269 117.5,69.5C 118.674,68.4863 119.34,67.153 119.5,65.5C 121.006,62.644 121.672,59.4774 121.5,56C 121.496,53.6392 121.163,51.4726 120.5,49.5C 120.011,44.1679 117.344,40.5013 112.5,38.5C 109.968,35.9257 106.801,34.5924 103,34.5C 100.779,34.3932 98.9461,35.0598 97.5,36.5C 88.8863,33.2013 84.553,26.868 84.5,17.5C 85.8333,16.8333 86.8333,15.8333 87.5,14.5C 88.4916,14.6716 89.1583,14.3382 89.5,13.5 Z"/></g>
<g><path style="opacity:1" fill="#423c2e" d="M 126.5,13.5 C 129.079,14.2276 131.746,14.7276 134.5,15C 135.942,15.3768 136.942,16.2101 137.5,17.5C 133.492,16.539 129.825,15.2057 126.5,13.5 Z"/></g>
<g><path style="opacity:1" fill="#6c6551" d="M 110.5,10.5 C 109.71,11.7942 108.71,12.9609 107.5,14C 117.512,13.8512 122.846,18.6846 123.5,28.5C 126.754,28.7936 129.421,30.127 131.5,32.5C 132.167,34.1667 132.833,35.8333 133.5,37.5C 133.813,41.0419 133.479,44.3752 132.5,47.5C 134.099,37.7836 130.099,32.4502 120.5,31.5C 120.837,20.9914 116.004,16.9914 106,19.5C 101.831,14.0514 96.3313,12.0514 89.5,13.5C 95.2462,10.5622 100.413,11.5622 105,16.5C 105.715,13.3589 107.548,11.3589 110.5,10.5 Z"/></g>
<g><path style="opacity:1" fill="#332f1f" d="M 140.5,21.5 C 141.011,24.963 142.011,28.2963 143.5,31.5C 142.127,31.6567 140.793,31.49 139.5,31C 140.451,27.9433 140.784,24.7766 140.5,21.5 Z"/></g>
<g><path style="opacity:1" fill="#dcdbda" d="M 70.5,26.5 C 73.0221,26.8781 75.3554,27.7114 77.5,29C 73.7318,31.7471 71.3985,30.9138 70.5,26.5 Z"/></g>
<g><path style="opacity:1" fill="#504b40" d="M 145.5,32.5 C 147.5,32.5 148.5,33.5 148.5,35.5C 147.167,34.8333 146.167,33.8333 145.5,32.5 Z"/></g>
<g><path style="opacity:1" fill="#544e38" d="M 112.5,38.5 C 107.69,36.042 102.69,35.3754 97.5,36.5C 98.9461,35.0598 100.779,34.3932 103,34.5C 106.801,34.5924 109.968,35.9257 112.5,38.5 Z"/></g>
<g><path style="opacity:1" fill="#564e36" d="M 112.5,38.5 C 117.344,40.5013 120.011,44.1679 120.5,49.5C 118.58,45.3402 115.913,41.6735 112.5,38.5 Z"/></g>
<g><path style="opacity:1" fill="#524b38" d="M 148.5,35.5 C 149.665,36.4961 150.332,37.8295 150.5,39.5C 149.804,42.955 148.804,46.2883 147.5,49.5C 146.624,49.6309 145.957,49.2975 145.5,48.5C 148.586,44.5012 149.586,40.1679 148.5,35.5 Z"/></g>
<g><path style="opacity:1" fill="#3e3a32" d="M 120.5,49.5 C 121.163,51.4726 121.496,53.6392 121.5,56C 121.672,59.4774 121.006,62.644 119.5,65.5C 120.275,60.2032 120.608,54.8699 120.5,49.5 Z"/></g>
<g><path style="opacity:1" fill="#534d41" d="M 147.5,49.5 C 148.496,49.4142 149.329,49.7476 150,50.5C 152.139,54.6186 151.639,58.2852 148.5,61.5C 148.961,59.4496 149.628,57.4496 150.5,55.5C 149.871,53.2592 148.871,51.2592 147.5,49.5 Z"/></g>
<g><path style="opacity:1" fill="#373228" d="M 131.5,32.5 C 133.708,33.8936 135.208,35.8936 136,38.5C 138.662,49.0619 139.162,59.7286 137.5,70.5C 138.233,71.087 139.233,71.087 140.5,70.5C 138.363,74.4338 137.03,74.2671 136.5,70C 137.536,62.8535 137.703,55.6868 137,48.5C 136.885,44.386 135.718,40.7193 133.5,37.5C 132.833,35.8333 132.167,34.1667 131.5,32.5 Z"/></g>
<g><path style="opacity:1" fill="#443d31" d="M 134.5,53.5 C 136.326,55.4551 136.826,57.7884 136,60.5C 135.388,63.1146 133.888,64.7813 131.5,65.5C 134.115,61.9912 135.115,57.9912 134.5,53.5 Z"/></g>
<g><path style="opacity:1" fill="#777266" d="M 146.5,64.5 C 145.5,67.5 143.5,69.5 140.5,70.5C 142.167,68.1667 144.167,66.1667 146.5,64.5 Z"/></g>
<g><path style="opacity:1" fill="#5d574a" d="M 131.5,65.5 C 130.942,66.7899 129.942,67.6232 128.5,68C 129.108,69.231 129.441,70.5643 129.5,72C 129.722,76.4293 127.722,78.9293 123.5,79.5C 124.688,78.6364 125.855,77.6364 127,76.5C 128.249,73.1952 128.749,69.8619 128.5,66.5C 129.417,65.8728 130.417,65.5394 131.5,65.5 Z"/></g>
<g><path style="opacity:1" fill="#504945" d="M 117.5,69.5 C 117.573,71.0269 116.906,72.0269 115.5,72.5C 115.427,70.9731 116.094,69.9731 117.5,69.5 Z"/></g>
<g><path style="opacity:1" fill="#5f5726" d="M 115.5,72.5 C 114.5,75.5 112.5,77.5 109.5,78.5C 111.167,76.1667 113.167,74.1667 115.5,72.5 Z"/></g>
<g><path style="opacity:1" fill="#544e28" d="M 108.5,79.5 C 108.027,80.9063 107.027,81.573 105.5,81.5C 105.973,80.0937 106.973,79.427 108.5,79.5 Z"/></g>
<g><path style="opacity:1" fill="#3e3728" d="M 105.5,81.5 C 104.016,83.0737 102.349,84.407 100.5,85.5C 99.2267,84.9232 99.2267,84.2565 100.5,83.5C 102.075,82.5435 103.742,81.8769 105.5,81.5 Z"/></g>
<g><path style="opacity:1" fill="#555040" d="M 123.5,79.5 C 122.791,80.404 121.791,80.7373 120.5,80.5C 120.66,82.1992 120.494,83.8659 120,85.5C 113.368,90.7056 106.868,90.7056 100.5,85.5C 105.344,88.1355 110.344,88.6355 115.5,87C 118.941,85.6816 120.275,83.1816 119.5,79.5C 120.833,79.5 122.167,79.5 123.5,79.5 Z"/></g>
<g><path style="opacity:1" fill="#847f7c" d="M 82.5,108.5 C 87.4211,110.354 87.4211,111.354 82.5,111.5C 82.5,110.5 82.5,109.5 82.5,108.5 Z"/></g>
<g><path style="opacity:1" fill="#8b8784" d="M 83.5,124.5 C 83.5,147.167 83.5,169.833 83.5,192.5C 85.1667,192.5 86.8333,192.5 88.5,192.5C 86.7354,193.461 84.7354,193.795 82.5,193.5C 82.1692,170.327 82.5025,147.327 83.5,124.5 Z"/></g>
<g><path style="opacity:1" fill="#fdfdfd" d="M -0.5,125.5 C 7.93594,165.603 32.2693,189.603 72.5,197.5C 48.1667,197.5 23.8333,197.5 -0.5,197.5C -0.5,173.5 -0.5,149.5 -0.5,125.5 Z"/></g>
</svg>

<svg xmlns="http://www.w3.org/2000/svg" width="167" height="198" style="shape-rendering:geometricPrecision;text-rendering:geometricPrecision;image-rendering:optimizeQuality;fill-rule:evenodd;clip-rule:evenodd"><path style="opacity:1" fill="#fdfdfd" d="M165.5-.5h1v198h-75c42.119-7.62 66.619-32.62 73.5-75 .5-40.999.667-81.999.5-123z"/><path style="opacity:1" fill="#080605" d="M-.5-.5h166c.167 41.001 0 82.001-.5 123-6.881 42.38-31.381 67.38-73.5 75h-19c-40.23-7.897-64.564-31.897-73-72V-.5z"/><path style="opacity:1" fill="#d63023" d="M3.5 3.5h78v14c-5.425-.122-10.092 1.712-14 5.5a79.915 79.915 0 0 0-14 4c-1.231 1.183-1.231 2.35 0 3.5 6.535 1.575 6.535 2.575 0 3a39.964 39.964 0 0 0 3 9 15.007 15.007 0 0 1 3.5-4c3.324 3.331 7.157 5.831 11.5 7.5-9.25 4.533-16.75 11.033-22.5 19.5L37.5 56c-8.537.676-16.37 3.51-23.5 8.5a26.532 26.532 0 0 0-2.5 11h5v-5a133.382 133.382 0 0 0 16.5-9A638.116 638.116 0 0 0 45.5 82l-24 1-2.5 2.5a103.793 103.793 0 0 0-3 26l5.5 3.5c2.502.28 4.169-.887 5-3.5a583.831 583.831 0 0 0-6-5c.825-.886 1.825-1.219 3-1-.166-5.011 0-10.011.5-15 .414-.457.914-.79 1.5-1a834.843 834.843 0 0 0 27 9 7.253 7.253 0 0 0 2.5-2 628.07 628.07 0 0 1 26 11c.72 1.612.554 3.112-.5 4.5a540.688 540.688 0 0 1-20 5c-8.707 4.628-11.373 11.628-8 21-.49 1.982-1.49 3.649-3 5 1.496.507 2.663.007 3.5-1.5.595 1.399.428 2.732-.5 4 .855.793 1.689.46 2.5-1-.077 1.238.09 2.238.5 3a13.055 13.055 0 0 1 4-3l2 1a188.183 188.183 0 0 1-15.5 21c-1.218 3.647-1.885 7.314-2 11 .667 1.333 1.333 1.333 2 0a7.292 7.292 0 0 0 2 3c1.604-2.747 2.438-5.747 2.5-9 1.322.17 2.489-.163 3.5-1 4.372-10.047 10.705-18.714 19-26-3.374-8.27-.874-14.27 7.5-18 1 22.323 1.333 44.657 1 67-42.974-3.81-68.808-26.81-77.5-69-.5-40.332-.667-80.665-.5-121z"/><path style="opacity:1" fill="#807b75" d="M83.5 3.5c-.166 4.346.001 8.68.5 13 .816-1.323 1.983-1.99 3.5-2a6.541 6.541 0 0 1-3 3c-1.305-1.897-1.971-4.23-2-7 .003-2.525.337-4.859 1-7z"/><path style="opacity:1" fill="#fcfcfc" d="M83.5 3.5h77c.167 41.001 0 82.001-.5 123-8.005 39.172-31.838 61.172-71.5 66h-5v-68c1.017-2.099 2.35-3.099 4-3-5.305 9.191-3.472 16.524 5.5 22 .651 1.735.485 3.402-.5 5 .774 1.211 1.607 1.211 2.5 0l1 2c1.474-2.825 2.974-3.158 4.5-1 1.611-.82 2.278-2.154 2-4h6a283.396 283.396 0 0 1-4 35h7v-10c2.448.415 3.781-.585 4-3-1.456-11.065-.456-21.898 3-32.5-4.321-3.317-7.488-7.484-9.5-12.5-.667-2-.667-4 0-6 7.594-1.21 13.427-5.043 17.5-11.5a60.931 60.931 0 0 1 11-.5v-3a4.934 4.934 0 0 1-3-.5 18.453 18.453 0 0 1 6-.5v-3a40.939 40.939 0 0 1-9-.5 50.442 50.442 0 0 1 10-.5v-3a84.94 84.94 0 0 0-13 .5 3102.59 3102.59 0 0 0-10 13c-3.114 1.931-6.447 2.598-10 2A765.47 765.47 0 0 1 92 88.5 48.687 48.687 0 0 1 87.5 78 135.72 135.72 0 0 0 95 43.5c1.61-.647 3.11-1.48 4.5-2.5-1.537-1.11-2.204-2.61-2-4.5 5.19-1.125 10.19-.458 15 2 3.413 3.173 6.08 6.84 8 11a96.873 96.873 0 0 1-1 16c-.16 1.653-.826 2.986-2 4-1.406.473-2.073 1.473-2 3a25.647 25.647 0 0 0-6 6c0 .667-.333 1-1 1-1.527-.073-2.527.594-3 2a16.062 16.062 0 0 0-5 2c-1.273.757-1.273 1.423 0 2 6.368 5.206 12.868 5.206 19.5 0 .494-1.634.66-3.3.5-5 1.291.237 2.291-.096 3-1 4.222-.57 6.222-3.07 6-7.5a9.84 9.84 0 0 0-1-4c1.442-.377 2.442-1.21 3-2.5 2.388-.719 3.888-2.385 4.5-5 .826-2.712.326-5.045-1.5-7a81.819 81.819 0 0 1-2.5-3c-.74-1.25-.573-2.25.5-3 .979-3.125 1.313-6.458 1-10 2.218 3.22 3.385 6.886 3.5 11a88.955 88.955 0 0 1-.5 21.5c.53 4.267 1.863 4.434 4 .5 3-1 5-3 6-6 .432-1.21 1.099-2.21 2-3 3.139-3.215 3.639-6.881 1.5-11-.671-.752-1.504-1.086-2.5-1a55.824 55.824 0 0 0 3-10c-.168-1.67-.835-3.004-2-4 0-2-1-3-3-3-.992.172-1.658-.162-2-1a36.118 36.118 0 0 1-3-10 310.678 310.678 0 0 1-3-4c-.558-1.29-1.558-2.123-3-2.5a46.127 46.127 0 0 1-8-1.5c-1-.333-1.667-1-2-2-.847-1.466-2.18-2.3-4-2.5-2.539-.796-4.872-.63-7 .5-.709.904-1.709 1.237-3 1-2.952.859-4.785 2.859-5.5 6-4.587-4.938-9.754-5.938-15.5-3-.342.838-1.008 1.172-2 1-1.517.01-2.684.677-3.5 2a84.938 84.938 0 0 1-.5-13z"/><path style="opacity:1" fill="#eedc00" d="M113.5 9.5c3.819-.086 7.485.58 11 2 .333 1 1 1.667 2 2 3.325 1.706 6.992 3.039 11 4a310.678 310.678 0 0 0 3 4c.284 3.277-.049 6.443-1 9.5a8.435 8.435 0 0 0 4 .5c.342.838 1.008 1.172 2 1a6.544 6.544 0 0 0 3 3c1.086 4.668.086 9.001-3 13 .457.797 1.124 1.13 2 1 1.371 1.76 2.371 3.76 3 6a31.69 31.69 0 0 0-2 6c-.901.79-1.568 1.79-2 3a25.647 25.647 0 0 0-6 6c-1.267.587-2.267.587-3 0 1.662-10.771 1.162-21.438-1.5-32-.792-2.606-2.292-4.606-4.5-6-2.079-2.373-4.746-3.706-8-4-.654-9.815-5.988-14.649-16-14.5a14.696 14.696 0 0 0 3-3.5c1.291.237 2.291-.096 3-1z"/><path style="opacity:1" fill="#443d29" d="M113.5 9.5c2.128-1.13 4.461-1.296 7-.5 1.82.2 3.153 1.034 4 2.5a27.425 27.425 0 0 0-11-2z"/><path style="opacity:1" fill="#eedb01" d="M89.5 13.5c6.831-1.449 12.331.551 16.5 6 10.004-2.509 14.837 1.491 14.5 12 9.599.95 13.599 6.284 12 16-1.073.75-1.24 1.75-.5 3a81.819 81.819 0 0 0 2.5 3c.615 4.491-.385 8.491-3 12a5.577 5.577 0 0 0-3 1c.249 3.362-.251 6.695-1.5 10a30.155 30.155 0 0 1-3.5 3h-4c.775 3.682-.559 6.182-4 7.5-5.156 1.635-10.156 1.135-15-1.5a22.763 22.763 0 0 0 5-4c1.527.073 2.527-.594 3-2 .667 0 1-.333 1-1 3-1 5-3 6-6 1.406-.473 2.073-1.473 2-3 1.174-1.014 1.84-2.347 2-4 1.506-2.856 2.172-6.023 2-9.5-.004-2.36-.337-4.527-1-6.5-.489-5.332-3.156-8.999-8-11-2.532-2.574-5.699-3.908-9.5-4-2.221-.107-4.054.56-5.5 2-8.614-3.299-12.947-9.632-13-19a6.541 6.541 0 0 0 3-3c.992.172 1.658-.162 2-1z"/><path style="opacity:1" fill="#423c2e" d="M126.5 13.5a46.127 46.127 0 0 0 8 1.5c1.442.377 2.442 1.21 3 2.5-4.008-.961-7.675-2.294-11-4z"/><path style="opacity:1" fill="#6c6551" d="M110.5 10.5a14.696 14.696 0 0 1-3 3.5c10.012-.149 15.346 4.685 16 14.5 3.254.294 5.921 1.627 8 4l2 5c.313 3.542-.021 6.875-1 10 1.599-9.716-2.401-15.05-12-16 .337-10.509-4.496-14.509-14.5-12-4.169-5.449-9.669-7.449-16.5-6 5.746-2.938 10.913-1.938 15.5 3 .715-3.141 2.548-5.141 5.5-6z"/><path style="opacity:1" fill="#332f1f" d="M140.5 21.5a36.118 36.118 0 0 0 3 10 8.435 8.435 0 0 1-4-.5c.951-3.057 1.284-6.223 1-9.5z"/><path style="opacity:1" fill="#dcdbda" d="M70.5 26.5a18.892 18.892 0 0 1 7 2.5c-3.768 2.747-6.102 1.914-7-2.5z"/><path style="opacity:1" fill="#504b40" d="M145.5 32.5c2 0 3 1 3 3a6.544 6.544 0 0 1-3-3z"/><path style="opacity:1" fill="#544e38" d="M112.5 38.5c-4.81-2.458-9.81-3.125-15-2 1.446-1.44 3.279-2.107 5.5-2 3.801.092 6.968 1.426 9.5 4z"/><path style="opacity:1" fill="#564e36" d="M112.5 38.5c4.844 2.001 7.511 5.668 8 11-1.92-4.16-4.587-7.827-8-11z"/><path style="opacity:1" fill="#524b38" d="M148.5 35.5c1.165.996 1.832 2.33 2 4a55.824 55.824 0 0 1-3 10c-.876.13-1.543-.203-2-1 3.086-3.999 4.086-8.332 3-13z"/><path style="opacity:1" fill="#3e3a32" d="M120.5 49.5c.663 1.973.996 4.14 1 6.5.172 3.477-.494 6.644-2 9.5a96.873 96.873 0 0 0 1-16z"/><path style="opacity:1" fill="#534d41" d="M147.5 49.5c.996-.086 1.829.248 2.5 1 2.139 4.119 1.639 7.785-1.5 11a31.69 31.69 0 0 1 2-6c-.629-2.24-1.629-4.24-3-6z"/><path style="opacity:1" fill="#373228" d="M131.5 32.5c2.208 1.394 3.708 3.394 4.5 6 2.662 10.562 3.162 21.229 1.5 32 .733.587 1.733.587 3 0-2.137 3.934-3.47 3.767-4-.5a88.955 88.955 0 0 0 .5-21.5c-.115-4.114-1.282-7.78-3.5-11l-2-5z"/><path style="opacity:1" fill="#443d31" d="M134.5 53.5c1.826 1.955 2.326 4.288 1.5 7-.612 2.615-2.112 4.281-4.5 5 2.615-3.509 3.615-7.509 3-12z"/><path style="opacity:1" fill="#777266" d="M146.5 64.5c-1 3-3 5-6 6a25.647 25.647 0 0 1 6-6z"/><path style="opacity:1" fill="#5d574a" d="M131.5 65.5c-.558 1.29-1.558 2.123-3 2.5a9.84 9.84 0 0 1 1 4c.222 4.43-1.778 6.93-6 7.5a30.155 30.155 0 0 0 3.5-3c1.249-3.305 1.749-6.638 1.5-10a5.577 5.577 0 0 1 3-1z"/><path style="opacity:1" fill="#504945" d="M117.5 69.5c.073 1.527-.594 2.527-2 3-.073-1.527.594-2.527 2-3z"/><path style="opacity:1" fill="#5f5726" d="M115.5 72.5c-1 3-3 5-6 6a25.647 25.647 0 0 1 6-6z"/><path style="opacity:1" fill="#544e28" d="M108.5 79.5c-.473 1.406-1.473 2.073-3 2 .473-1.406 1.473-2.073 3-2z"/><path style="opacity:1" fill="#3e3728" d="M105.5 81.5a22.763 22.763 0 0 1-5 4c-1.273-.577-1.273-1.243 0-2a16.062 16.062 0 0 1 5-2z"/><path style="opacity:1" fill="#555040" d="M123.5 79.5c-.709.904-1.709 1.237-3 1a12.93 12.93 0 0 1-.5 5c-6.632 5.206-13.132 5.206-19.5 0 4.844 2.635 9.844 3.135 15 1.5 3.441-1.318 4.775-3.818 4-7.5h4z"/><path style="opacity:1" fill="#847f7c" d="M82.5 108.5c4.921 1.854 4.921 2.854 0 3v-3z"/><path style="opacity:1" fill="#8b8784" d="M83.5 124.5v68h5c-1.765.961-3.765 1.295-6 1-.33-23.173.002-46.173 1-69z"/><path style="opacity:1" fill="#fdfdfd" d="M-.5 125.5c8.436 40.103 32.77 64.103 73 72h-73v-72z"/></svg>
